X: 16160
T: Green Linnet, The
R: reel
M: 4/4
K: Adorian
|:A2 ae cBAc|BAGB gdBG|A2 ae cBAc|BGdB cA A2:|
ABcd ecBA|BGBd gdBG|ABcd ecBA|BGdB cAAB|
ABcd ecBA|BGBd gdBG|AcBd ced=f|edcB cA A2||

